material/.icons/material/equalizer-outline.svg

<svg xmlns="http://www.w3.org/2000/svg" viewBox="0 0 24 24"><path d="M15 21H9V3h6v18m-4-2h2V5h-2v14m-3 2H2V11h6v10m-4-2h2v-6H4v6m18 2h-6V8h6v13m-4-2h2v-9h-2v9z"/></svg>

<?xml version="1.0" encoding="UTF-8"?><!DOCTYPE svg PUBLIC "-//W3C//DTD SVG 1.1//EN" "http://www.w3.org/Graphics/SVG/1.1/DTD/svg11.dtd"><svg xmlns="http://www.w3.org/2000/svg" xmlns:xlink="http://www.w3.org/1999/xlink" version="1.1" id="mdi-equalizer-outline" width="24" height="24" viewBox="0 0 24 24"><path d="M15,21H9V3H15V21M11,19H13V5H11V19M8,21H2V11H8V21M4,19H6V13H4V19M22,21H16V8H22V21M18,19H20V10H18V19Z" /></svg>
